X:470
T:I Love A Lassie 
C:Joe Buchanan's Scottish Tome - Page 093.1
I:093 1
R:Polka
Z:Carl Allison
L:1/8
M:2/4
K:C
| "C"E2 "G7"FG | "C"E C2 D | "C"E>F "G7"GF | "C"EC EG |
| "Am"c2 c>d | "D7"BA G^F | "G"(G4 | G2) AB |
| "C"c2 c>B | A G2 A | cA GA | "C7"E D3 |
| "C"E G2 A | "G7"E2 D2 |1  C2 A2 | "C"G2 "F"F2 :|2 "C"(G4 | "F7" G2) |]

